X: 1
T: Cotton-Eyed Joe  [A]
R: reel
Z: 2004 John Chambers <jc@trillian.mit.edu>
M: C|
L: 1/8
K: A
   AB | "A"c2cB A2AB | cBc2 "D"d2AB | "A"c2cB A2AB |1 "E7"cAF2 "A"E2 :|2 "E7"cAB2 "A"A2 ||
|: ee | "A"e2f2 a3f  | a2f2 "E7"e3f | "A"a2f2 e2d2 |  "E7"cAB2 "A"A2 :|

%%sep 1 1 400


